packages/heroicons/src/interstate/outline/inbox-arrow-down.svg

<svg width="16" height="17" viewBox="0 0 16 17" fill="none" xmlns="http://www.w3.org/2000/svg">
<path d="M5.78639 2.48655H4.24561C3.51679 2.48655 2.8732 2.9619 2.65886 3.65849L0.879322 9.44199C0.830653 9.60017 0.805908 9.76473 0.805908 9.93022V13.0009C0.805908 13.9178 1.54919 14.6611 2.46607 14.6611H13.5338C14.4507 14.6611 15.194 13.9178 15.194 13.0009V9.93022C15.194 9.76473 15.1692 9.60017 15.1206 9.44199L13.341 3.65849C13.1267 2.9619 12.4831 2.48655 11.7543 2.48655H10.2135M0.805908 9.68059H3.65358C4.28241 9.68059 4.85726 10.0359 5.13848 10.5983L5.32754 10.9764C5.60875 11.5389 6.18361 11.8941 6.81243 11.8941H9.18745C9.81628 11.8941 10.3911 11.5389 10.6723 10.9764L10.8614 10.5983C11.1426 10.0359 11.7175 9.68059 12.3463 9.68059H15.194M7.99994 1.93317V8.02043M7.99994 8.02043L5.78639 5.80688M7.99994 8.02043L10.2135 5.80688" stroke="black" stroke-width="1.5" stroke-linecap="round" stroke-linejoin="round"/>
</svg>

<svg viewBox="0 0 16 17">
  <path stroke="currentColor" stroke-linecap="round" stroke-linejoin="round" stroke-width="1.5" d="M5.786 2.528h-1.54A1.66 1.66 0 0 0 2.659 3.7L.879 9.483a1.66 1.66 0 0 0-.073.489v3.07c0 .917.743 1.66 1.66 1.66h11.068a1.66 1.66 0 0 0 1.66-1.66v-3.07c0-.166-.025-.33-.073-.489L13.34 3.7a1.66 1.66 0 0 0-1.587-1.172h-1.54M.806 9.722h2.848a1.66 1.66 0 0 1 1.485.918l.189.378a1.66 1.66 0 0 0 1.484.917h2.376a1.66 1.66 0 0 0 1.484-.917l.19-.378a1.66 1.66 0 0 1 1.484-.918h2.848M8 1.975v6.087m0 0L5.786 5.848M8 8.062l2.214-2.214"/>
</svg>
